flaticon/medical/pills-4.svg

<svg xmlns="http://www.w3.org/2000/svg" width="32" height="32" viewBox="0 0 24 24">
    <path d="M 22.558594 1.441406 C 19.410156 -1.703125 12.113281 0.472656 6.292969 6.292969 C 0.472656 12.113281 -1.703125 19.410156 1.441406 22.558594 C 2.421875 23.535156 3.796875 24 5.410156 24 C 8.980469 24 13.695312 21.71875 17.707031 17.707031 C 23.527344 11.886719 25.703125 4.589844 22.558594 1.441406 Z M 17.136719 17.136719 C 11.628906 22.644531 4.84375 24.820312 2.011719 21.988281 C -0.820312 19.15625 1.355469 12.371094 6.863281 6.863281 C 10.730469 2.996094 15.230469 0.769531 18.546875 0.769531 C 19.953125 0.769531 21.144531 1.167969 21.988281 2.011719 C 24.820312 4.84375 22.644531 11.628906 17.136719 17.136719 Z M 17.136719 17.136719"/>
    <path d="M14.328125 4.003906C13.140625 5.195312 12.777344 6.621094 13.480469 7.324219 13.722656 7.566406 14.046875 7.679688 14.417969 7.679688 15.132812 7.679688 16.015625 7.253906 16.796875 6.476562 17.984375 5.285156 18.351562 3.859375 17.648438 3.15625 16.941406 2.453125 15.515625 2.816406 14.328125 4.003906zM16.226562 5.902344C15.289062 6.84375 14.328125 7.03125 14.050781 6.753906 13.773438 6.476562 13.960938 5.515625 14.898438 4.578125 15.578125 3.894531 16.273438 3.609375 16.707031 3.609375 16.871094 3.609375 17 3.652344 17.074219 3.726562 17.351562 4.003906 17.164062 4.964844 16.226562 5.902344zM7.25 7.859375C4.1875 10.921875 2.507812 13.855469 2.113281 16.832031 2.082031 17.054688 2.238281 17.257812 2.460938 17.285156 2.476562 17.289062 2.496094 17.289062 2.515625 17.289062 2.714844 17.289062 2.886719 17.140625 2.914062 16.9375 3.285156 14.144531 4.890625 11.363281 7.824219 8.433594 7.980469 8.273438 7.980469 8.019531 7.824219 7.859375 7.664062 7.703125 7.410156 7.703125 7.25 7.859375zM2.953125 19.109375C2.90625 18.894531 2.6875 18.753906 2.472656 18.800781 2.253906 18.851562 2.117188 19.066406 2.164062 19.28125 2.339844 20.09375 2.71875 20.808594 3.257812 21.351562 3.335938 21.429688 3.441406 21.46875 3.542969 21.46875 3.644531 21.46875 3.75 21.429688 3.828125 21.351562 3.984375 21.195312 3.988281 20.9375 3.828125 20.78125 3.398438 20.351562 3.09375 19.773438 2.953125 19.109375zM2.953125 19.109375"/>
</svg>

<svg xmlns="http://www.w3.org/2000/svg" width="32" height="32" viewBox="0 0 24 24">
    <path d="M22.559 1.441C19.41-1.703 12.113.473 6.293 6.293c-5.82 5.82-7.996 13.117-4.852 16.266.98.976 2.356 1.441 3.97 1.441 3.57 0 8.284-2.281 12.296-6.293 5.82-5.82 7.996-13.117 4.852-16.266zm-5.422 15.696c-5.508 5.508-12.293 7.683-15.125 4.851-2.832-2.832-.657-9.617 4.851-15.125C10.73 2.996 15.23.77 18.547.77c1.406 0 2.598.398 3.441 1.242 2.832 2.832.657 9.617-4.851 15.125zm0 0"/>
    <path d="M14.328 4.004c-1.187 1.191-1.55 2.617-.848 3.32.243.242.567.356.938.356.715 0 1.598-.426 2.379-1.203 1.187-1.192 1.555-2.618.851-3.32-.707-.704-2.132-.34-3.32.847zm1.899 1.898c-.938.942-1.899 1.13-2.176.852-.278-.277-.09-1.238.847-2.176.68-.683 1.375-.969 1.809-.969.164 0 .293.043.367.118.278.277.09 1.238-.847 2.175zm0 0M7.25 7.86c-3.063 3.062-4.742 5.995-5.137 8.972a.4.4 0 0 0 .403.457c.199 0 .37-.148.398-.352.371-2.792 1.977-5.574 4.91-8.503a.41.41 0 0 0 0-.575.41.41 0 0 0-.574 0zm0 0M2.953 19.11a.408.408 0 0 0-.48-.31.407.407 0 0 0-.309.481c.176.813.555 1.528 1.094 2.07a.405.405 0 0 0 .57 0 .402.402 0 0 0 0-.57c-.43-.43-.734-1.008-.875-1.672zm0 0"/>
</svg>
